X: 937
T: All Around Aunt Ruby's Garden
R: polka
M: 2/4
K: Dmajor
|:DF AF|FE FE|DF AF|FE E2|
DF AF|FE FA|B>c BA|FE D2:|
|:Dd cd|F>G FE|Dd cd|e2 e2|
Dd cd|F>G FA|B>c BA|FE D2:|

